X: 868
T: The Soldier's joy
C: anon.
O: Ireland
B: Francis O'Neill: "The Dance Music of Ireland" (1907) no. 868
R: Hornpipe
Z: Transcribed by Frank Nordberg - http://www.musicaviva.com
F: http://www.musicaviva.com/abc/tunes/ireland/oneill-1001/oneill-1001-086
8.abc
M: C|
L: 1/8
K: D
(FG)|AFDF AFDF|A2d2 d2(cB)|AFDF AFDF|G2E2 E2(FG)|\
AFDF AFDF|A2d2 d2(de)|fafd (3efg ec|d2d2d2:|
|:(de)|fdfd fagf|edcd efge|fdfd fagf|edcB A2(de)|\
fede fagf|ecAc efge|fafd (3efg ec|d2d2d2:|
W:
W:
W: From Musica Viva - http://www.musicaviva.com
W: the Internet center for free sheet music downloads.


